img/advantages/3.svg

<svg width="48" height="48" viewBox="0 0 48 48" fill="none" xmlns="http://www.w3.org/2000/svg">
<g clip-path="url(#clip0_0:45)">
<path d="M19.2976 6.88197C15.1042 2.69072 6.89824 2.20471 1.0898 2.20471C0.488251 2.20471 0 2.69286 0 3.29441C0 9.10285 0.483858 17.3088 4.67726 21.5023C6.44708 23.2721 9.16061 24.0633 11.8501 24.0633C14.7729 24.0633 17.6695 23.1283 19.2976 21.5002C22.4209 18.3769 22.9942 10.5763 19.2976 6.88197ZM17.7567 19.9614C15.4246 22.2912 8.94922 22.6901 6.22047 19.9614C2.83562 16.5766 2.24928 9.70011 2.18604 4.39076C7.4954 4.454 14.3719 5.04022 17.7566 8.42508C20.4855 11.1538 20.0866 17.6315 17.7567 19.9614Z" fill="#156963"/>
<path d="M46.9104 6.51575C41.102 6.51575 32.896 6.9996 28.7025 11.193C25.0061 14.8873 25.5792 22.6879 28.7025 25.8112C30.3306 27.4372 33.2251 28.3722 36.1479 28.3722C38.8374 28.3722 41.5488 27.5832 43.3229 25.8135C47.5141 21.6201 48.0001 13.4141 48.0001 7.60555C48.0002 7.004 47.512 6.51575 46.9104 6.51575ZM41.7776 24.2702C39.0489 26.999 32.5712 26.6001 30.2414 24.2702C27.9115 21.9403 27.5126 15.4627 30.2414 12.734C33.6262 9.34911 40.5026 8.76289 45.812 8.69965C45.7488 14.0111 45.1625 20.8876 41.7776 24.2702Z" fill="#156963"/>
<path d="M39.0397 15.9489C38.7825 15.4018 38.0458 15.2144 37.5031 15.4671C29.1446 19.3969 25.0383 26.2493 23.1726 33.2936C20.8644 18.3157 14.1885 13.7496 11.3573 11.8121C11.0042 11.5701 10.7296 11.3936 10.5771 11.2432C10.152 10.8182 9.46109 10.8182 9.03608 11.2432C8.61107 11.6682 8.61107 12.3592 9.03608 12.7842C9.25186 12.9978 9.62456 13.2659 10.128 13.6102C13.3189 15.7919 21.7951 21.5917 21.7951 44.7057C21.7951 45.3073 22.2833 45.7955 22.8849 45.7955C23.4864 45.7955 23.9747 45.3073 23.9747 44.708C23.9747 35.3687 26.4834 23.0564 38.4316 17.4419C38.4316 17.4398 38.6081 17.3569 38.6081 17.3569C39.1508 17.0997 39.2968 16.4937 39.0397 15.9489Z" fill="#156963"/>
</g>
<defs>
<clipPath id="clip0_0:45">
<rect width="48" height="48" fill="white"/>
</clipPath>
</defs>
</svg>

<svg width="48" height="48" fill="none" xmlns="http://www.w3.org/2000/svg"><g clip-path="url(#clip0_0:45)" fill="#156963"><path d="M19.298 6.882C15.104 2.691 6.898 2.205 1.09 2.205A1.09 1.09 0 000 3.295c0 5.808.484 14.014 4.677 18.207 1.77 1.77 4.484 2.561 7.173 2.561 2.923 0 5.82-.935 7.448-2.563 3.123-3.123 3.696-10.924 0-14.618zm-1.541 13.08c-2.332 2.33-8.808 2.728-11.537 0C2.836 16.576 2.25 9.7 2.186 4.39c5.31.063 12.186.65 15.57 4.034 2.73 2.729 2.33 9.206 0 11.536zM46.91 6.516c-5.808 0-14.014.484-18.207 4.677-3.697 3.694-3.124 11.495 0 14.618 1.628 1.626 4.522 2.561 7.445 2.561 2.69 0 5.4-.789 7.175-2.558C47.514 21.62 48 13.414 48 7.606a1.09 1.09 0 00-1.09-1.09zM41.778 24.27c-2.73 2.729-9.207 2.33-11.537 0s-2.728-8.807 0-11.536C33.626 9.349 40.503 8.763 45.812 8.7c-.063 5.311-.65 12.188-4.034 15.57z"/><path d="M39.04 15.949c-.258-.547-.994-.735-1.537-.482-8.358 3.93-12.465 10.782-14.33 17.827-2.309-14.978-8.984-19.544-11.816-21.482-.353-.242-.627-.418-.78-.569a1.09 1.09 0 00-1.54 1.541c.215.214.588.482 1.091.826 3.19 2.182 11.667 7.982 11.667 31.096a1.09 1.09 0 002.18.002c0-9.34 2.508-21.652 14.457-27.266 0-.002.176-.085.176-.085.543-.257.689-.863.432-1.408z"/></g><defs><clipPath id="clip0_0:45"><path fill="#fff" d="M0 0h48v48H0z"/></clipPath></defs></svg>
